X:2121
T:Insh dou c'red t'ad surranse ec y keayn 
C:Tom Kermode, Bradda 
C:Traditional
O:Isle of Man
Z:Clague collection
B:Kiaull Vannin #121 
M:3/4 
L:1/4
Q:120 
K:G 
d|GG G|e dB/G/|A G G|(GB) B|BA A|A B c|e d^c|d2d| 
B d g|g g g|e d a|(gf) g/f/|e g e|d B d|d/c/ A F|G2|| 

